icons/grade-school-two-color.svg

<?xml version="1.0" encoding="UTF-8"?><svg id="uuid-aeee6da4-c89d-4af5-9d5e-5e2eb74e78dc" xmlns="http://www.w3.org/2000/svg" viewBox="0 0 50 50"><path d="M42.95,18.6h-9.88c-.12,0-.23-.04-.32-.12l-6.37-5.31-5.75,5.31c-.09,.09-.21,.13-.34,.13H10.48l-4.9,7.86h1.56c.13,0,.29,.05,.38,.14,.09,.09,.18,.22,.18,.35v22.51H45.78V26.9c0-.28,.22-.5,.5-.5h1.62l-4.95-7.8ZM11.6,41.7h-2.29v-4.64h2.29v4.64Zm0-8.54h-2.29v-4.64h2.29v4.64Zm4.19-4.62h2.29v4.61h-2.29v-4.61Zm2.29,13.15h-2.29v-4.61h2.29v4.61Zm9.57,6.03h-5.59v-10.54h5.59v10.54Zm-5.37-16.92c0-1.38,1.12-2.51,2.51-2.51s2.51,1.12,2.51,2.51-1.12,2.51-2.51,2.51-2.51-1.12-2.51-2.51Zm-2.31-6.17l4.94-4.98,4.83,4.98h-9.77Zm13.79,17.07h-2.29v-4.64h2.29v4.64Zm0-8.54h-2.29v-4.64h2.29v4.64Zm4.19-4.62h2.29v4.61h-2.29v-4.61Zm2.29,13.15h-2.29v-4.61h2.29v4.61Z" fill="#ffcd00"/><path d="M47.92,47.89h-2.74V25.64h2.03c.18,0,.35-.1,.44-.26,.09-.16,.08-.35-.02-.51l-5.58-8.8c-.09-.15-.25-.23-.42-.23h-9.98l-6.33-5.28s.01-.03,.01-.05v-3.75h7.03c.28,0,.5-.22,.5-.5V1.03c0-.28-.22-.5-.5-.5h-7.53c-.28,0-.5,.22-.5,.5V10.47l-5.83,5.39H8.61c-.17-.01-.33,.08-.42,.22L2.66,24.96c-.1,.15-.1,.35-.01,.51,.09,.16,.26,.26,.44,.26h2.02v22.17H2.08c-.28,0-.5,.22-.5,.5s.22,.5,.5,.5H47.92c.28,0,.5-.22,.5-.5s-.22-.5-.5-.5ZM6.11,25.71l38.07-.07v22.07h-15.56v-11.02c0-.27-.22-.49-.49-.49h-6.56c-.27,0-.49,.22-.49,.49v11.02H6.11V25.71Zm13.86-1.08l4.94-4.98,4.83,4.98h-9.77Zm2.09,12.55h5.59v10.54h-5.59v-10.54ZM25.34,1.53h6.53V5.77h-6.53V1.53ZM3.99,24.72l4.9-7.87h9.82c.13,.01,.25-.03,.34-.12l5.74-5.31,6.37,5.31c.09,.08,.2,.12,.32,.12h9.88l4.95,7.8h-1.62s-.01,0-.02,0h0l-13.5,.02-5.9-6.07c-.09-.1-.22-.15-.36-.15-.14,0-.26,.05-.36,.15l-6.05,6.1-12.96,.02h-1.56Z"/><path d="M24.79,34.31c1.93,0,3.51-1.57,3.51-3.51s-1.57-3.51-3.51-3.51-3.51,1.57-3.51,3.51,1.57,3.51,3.51,3.51Zm0-6.01c1.38,0,2.51,1.12,2.51,2.51s-1.12,2.51-2.51,2.51-2.51-1.12-2.51-2.51,1.12-2.51,2.51-2.51Z"/><path d="M8.82,34.16h3.29c.28,0,.5-.22,.5-.5v-5.64c0-.28-.22-.5-.5-.5h-3.29c-.28,0-.5,.22-.5,.5v5.64c0,.28,.22,.5,.5,.5Zm.5-5.64h2.29v4.64h-2.29v-4.64Z"/><path d="M15.29,34.15h3.29c.28,0,.5-.22,.5-.5v-5.61c0-.28-.22-.5-.5-.5h-3.29c-.28,0-.5,.22-.5,.5v5.61c0,.28,.22,.5,.5,.5Zm.5-5.61h2.29v4.61h-2.29v-4.61Z"/><path d="M30.97,34.16h3.29c.28,0,.5-.22,.5-.5v-5.64c0-.28-.22-.5-.5-.5h-3.29c-.28,0-.5,.22-.5,.5v5.64c0,.28,.22,.5,.5,.5Zm.5-5.64h2.29v4.64h-2.29v-4.64Z"/><path d="M37.45,34.16h3.29c.28,0,.5-.22,.5-.5v-5.61c0-.28-.22-.5-.5-.5h-3.29c-.28,0-.5,.22-.5,.5v5.61c0,.28,.22,.5,.5,.5Zm.5-5.61h2.29v4.61h-2.29v-4.61Z"/><path d="M12.1,36.06h-3.29c-.28,0-.5,.22-.5,.5v5.64c0,.28,.22,.5,.5,.5h3.29c.28,0,.5-.22,.5-.5v-5.64c0-.28-.22-.5-.5-.5Zm-.5,5.64h-2.29v-4.64h2.29v4.64Z"/><path d="M18.58,36.08h-3.29c-.28,0-.5,.22-.5,.5v5.61c0,.28,.22,.5,.5,.5h3.29c.28,0,.5-.22,.5-.5v-5.61c0-.28-.22-.5-.5-.5Zm-.5,5.61h-2.29v-4.61h2.29v4.61Z"/><path d="M34.26,36.07h-3.29c-.28,0-.5,.22-.5,.5v5.64c0,.28,.22,.5,.5,.5h3.29c.28,0,.5-.22,.5-.5v-5.64c0-.28-.22-.5-.5-.5Zm-.5,5.64h-2.29v-4.64h2.29v4.64Z"/><path d="M40.74,36.09h-3.29c-.28,0-.5,.22-.5,.5v5.61c0,.28,.22,.5,.5,.5h3.29c.28,0,.5-.22,.5-.5v-5.61c0-.28-.22-.5-.5-.5Zm-.5,5.61h-2.29v-4.61h2.29v4.61Z"/></svg>

<svg id="e9321be7-9867-48fe-a377-d869c5a3d716" data-name="ICONS" xmlns="http://www.w3.org/2000/svg" viewBox="0 0 50 50"><path d="M43,18.6H33.07a.54.54,0,0,1-.32-.11l-6.37-5.31-5.74,5.31a.51.51,0,0,1-.34.13h0l-9.82,0-4.9,7.88H7.15a.57.57,0,0,1,.38.14.57.57,0,0,1,.18.36v22.5H45.78V26.9a.5.5,0,0,1,.5-.5H47.9ZM11.6,41.7H9.32V37.06H11.6Zm0-8.54H9.32V28.52H11.6Zm4.19-4.62h2.29v4.61H15.79Zm2.29,13.15H15.79V37.08h2.29Zm9.57,6H22.06V37.18h5.59ZM22.28,30.8a2.51,2.51,0,1,1,2.51,2.51A2.51,2.51,0,0,1,22.28,30.8ZM20,24.64l4.94-5,4.83,5ZM33.76,41.71H31.47V37.07h2.29Zm0-8.55H31.47V28.53h2.29ZM38,28.55h2.29v4.61H38ZM40.24,41.7H38V37.09h2.29Z" fill="#fdd600"/><path d="M47.92,47.89H45.18V25.64h2a.51.51,0,0,0,.44-.26.52.52,0,0,0,0-.51l-5.58-8.79a.48.48,0,0,0-.42-.23h-10l-6.32-5.27a.43.43,0,0,1,0-.05V6.77h7a.5.5,0,0,0,.5-.5V1a.5.5,0,0,0-.5-.5H24.84a.5.5,0,0,0-.5.5v9.44l-5.83,5.39-9.9,0h0a.5.5,0,0,0-.43.24L2.66,25a.47.47,0,0,0,0,.5.49.49,0,0,0,.43.26h2V47.89h-3a.5.5,0,0,0-.5.5.5.5,0,0,0,.5.5H47.92a.5.5,0,0,0,.5-.5A.5.5,0,0,0,47.92,47.89ZM6.11,25.71l38.07-.06V47.72H28.62v-11a.49.49,0,0,0-.48-.49H21.57a.48.48,0,0,0-.48.49v11h-15ZM20,24.64l4.94-5,4.83,5Zm2.09,12.54h5.59V47.72H22.06ZM25.34,1.53h6.53V5.77H25.34ZM4,24.72l4.9-7.88,9.81,0h0a.51.51,0,0,0,.34-.13l5.75-5.31,6.36,5.31a.54.54,0,0,0,.32.11h9.88l4.95,7.79H44.66l-13.49,0-5.9-6.07a.48.48,0,0,0-.36-.16.61.61,0,0,0-.36.15l-6,6.1-13,0Z" fill="#231f20"/><path d="M24.79,34.31a3.51,3.51,0,1,0-3.51-3.51A3.51,3.51,0,0,0,24.79,34.31Zm0-6a2.51,2.51,0,1,1-2.51,2.5A2.5,2.5,0,0,1,24.79,28.3Z" fill="#231f20"/><path d="M8.82,34.16H12.1a.5.5,0,0,0,.5-.5V28a.5.5,0,0,0-.5-.5H8.82a.5.5,0,0,0-.5.5v5.64A.5.5,0,0,0,8.82,34.16Zm.5-5.64H11.6v4.64H9.32Z" fill="#231f20"/><path d="M15.29,34.15h3.29a.5.5,0,0,0,.5-.5V28a.5.5,0,0,0-.5-.5H15.29a.5.5,0,0,0-.5.5v5.61A.5.5,0,0,0,15.29,34.15Zm.5-5.61h2.29v4.61H15.79Z" fill="#231f20"/><path d="M31,34.16h3.29a.5.5,0,0,0,.5-.5V28a.5.5,0,0,0-.5-.5H31a.5.5,0,0,0-.5.5v5.63A.5.5,0,0,0,31,34.16Zm.5-5.63h2.29v4.63H31.47Z" fill="#231f20"/><path d="M37.45,34.16h3.29a.51.51,0,0,0,.5-.5V28.05a.5.5,0,0,0-.5-.5H37.45a.5.5,0,0,0-.5.5v5.61A.5.5,0,0,0,37.45,34.16Zm.5-5.61h2.29v4.61H38Z" fill="#231f20"/><path d="M12.1,36.06H8.82a.5.5,0,0,0-.5.5V42.2a.5.5,0,0,0,.5.5H12.1a.5.5,0,0,0,.5-.5V36.56A.5.5,0,0,0,12.1,36.06Zm-.5,5.64H9.32V37.06H11.6Z" fill="#231f20"/><path d="M18.58,36.08H15.29a.51.51,0,0,0-.5.5v5.61a.5.5,0,0,0,.5.5h3.29a.5.5,0,0,0,.5-.5V36.58A.51.51,0,0,0,18.58,36.08Zm-.5,5.61H15.79V37.08h2.29Z" fill="#231f20"/><path d="M34.26,36.07H31a.5.5,0,0,0-.5.5v5.64a.51.51,0,0,0,.5.5h3.29a.5.5,0,0,0,.5-.5V36.57A.5.5,0,0,0,34.26,36.07Zm-.5,5.64H31.47V37.07h2.29Z" fill="#231f20"/><path d="M40.74,36.09H37.45a.5.5,0,0,0-.5.5V42.2a.5.5,0,0,0,.5.5h3.29a.5.5,0,0,0,.5-.5V36.59A.5.5,0,0,0,40.74,36.09Zm-.5,5.61H38V37.09h2.29Z" fill="#231f20"/></svg>
